layouts/icon-pack/armor_light.svg

<?xml version="1.0" encoding="UTF-8"?>
<svg width="1200pt" height="1200pt" version="1.1" viewBox="0 0 1200 1200" xmlns="http://www.w3.org/2000/svg">
 <g fill="#fff">
  <path d="m147.28 77.344-34.359 20.484c-6.4883 3.8633-11.617 9.6523-14.668 16.559-3.0547 6.9102-3.8828 14.598-2.3711 21.996 24.023 116.74 94.43 215.18 185.65 260.81 5.0312 2.5352 10.949 2.6055 16.039 0.19141 5.0898-2.4141 8.7812-7.043 10-12.543 4.9062-22.09 8.6367-44.426 11.18-66.914 0.37109-3.4297-0.25391-6.8945-1.8008-9.9805-1.5469-3.082-3.9492-5.6562-6.918-7.4102-98.625-58.594-135.94-175.38-146.23-216.4-0.86719-3.4102-3.2969-6.2109-6.5547-7.5508-3.2539-1.3398-6.9531-1.0586-9.9688 0.75391z"/>
  <path d="m213.28 541.69c4.1133 2.7188 9.1055 3.7656 13.965 2.9258 4.8555-0.84375 9.2109-3.5078 12.168-7.4492 10.891-14.922 20.199-30.941 27.773-47.789 2.7031-5.9922 3.2617-12.734 1.5781-19.09-1.6797-6.3555-5.5-11.938-10.812-15.809-38.367-28.125-112.31-88.406-160.92-166.24-1.9883-3.2109-5.1484-5.5273-8.8125-6.4531-3.6641-0.92969-7.543-0.39844-10.82 1.4805-3.2812 1.875-5.7031 4.9531-6.7578 8.582-7.4766 25.781-12.773 48.305-16.078 63.938-3.2734 15.16-0.53516 31 7.6406 44.18 40.312 64.383 118.52 120.21 151.08 141.73z"/>
  <path d="m814.97 61.219c-6.7227-4.1758-14.684-5.8945-22.531-4.8594-7.8438 1.0352-15.09 4.7539-20.5 10.531-25.5 27.469-80.531 71.391-171.94 71.391s-146.44-43.898-171.94-71.367c-5.4102-5.7773-12.656-9.4961-20.5-10.531-7.8477-1.0352-15.809 0.68359-22.531 4.8594l-115.69 71.297c-7.0117 4.3164-12.066 11.191-14.102 19.168-2.0352 7.9805-0.88672 16.438 3.2031 23.582 51.375 89.742 168.42 126.8 220.12 139.2 15.723 3.7344 32.262 1.6797 46.594-5.7891l51.094-26.555c14.887-7.7227 32.598-7.7227 47.484 0l51.094 26.555c14.332 7.4688 30.871 9.5234 46.594 5.7891 51.703-12.398 168.75-49.453 220.12-139.2 4.0898-7.1445 5.2383-15.602 3.2031-23.582-2.0352-7.9766-7.0898-14.852-14.102-19.168z"/>
  <path d="m834.73 336.73c-0.61328-4.4766-3.3398-8.3828-7.3281-10.504-3.9883-2.1211-8.75-2.1992-12.805-0.20703-34.125 16.617-74.578 27.891-99.094 33.656-13.934 3.332-28.598 1.543-41.32-5.0391l-50.555-26.109c-14.828-7.6484-32.445-7.6484-47.273 0l-50.461 26.086c-12.758 6.6016-27.465 8.3984-41.438 5.0625-24.516-5.8594-65.016-17.062-99.047-33.656-4.0547-1.9922-8.8164-1.9141-12.805 0.20703-3.9883 2.1211-6.7148 6.0273-7.3281 10.504-6.7734 53.297-32.695 199.22-120.33 295.95-4.7148 5.2344-7.3711 11.996-7.4805 19.039-0.10547 7.043 2.3438 13.883 6.8945 19.258 26.555 31.195 74.859 97.289 89.859 179.39 2.4297 13.645 11.102 25.371 23.438 31.688 34.734 17.578 109.17 52.359 188.79 71.461 35.145 8.4102 71.777 8.4102 106.92 0 79.688-19.102 154.05-53.906 188.79-71.461 12.336-6.3164 21.008-18.043 23.438-31.688 15-82.031 63.281-148.2 89.859-179.39 4.5508-5.375 7-12.215 6.8945-19.258-0.10938-7.043-2.7656-13.805-7.4805-19.039-87.445-96.844-113.46-242.65-120.14-295.95z"/>
  <path d="m1104.1 136.38c1.5117-7.3984 0.68359-15.086-2.3711-21.996-3.0508-6.9062-8.1797-12.695-14.668-16.559l-34.359-20.484c-3.0078-1.7656-6.6719-2.0195-9.8945-0.68359-3.2227 1.3359-5.6328 4.1055-6.5117 7.4805-10.359 41.016-47.602 157.78-146.23 216.4-2.9688 1.7539-5.3711 4.3281-6.918 7.4102-1.5469 3.0859-2.1719 6.5508-1.8008 9.9805 2.5352 22.484 6.2578 44.82 11.156 66.914 1.2188 5.5 4.9102 10.129 10 12.543 5.0898 2.4141 11.008 2.3438 16.039-0.19141 91.125-45.633 161.53-144.07 185.55-260.81z"/>
  <path d="m1129.4 291.84c-1.0625-3.625-3.4883-6.6953-6.7695-8.5664-3.2812-1.8672-7.1602-2.3906-10.82-1.457-3.6602 0.92969-6.8164 3.25-8.8008 6.4609-48.609 77.836-122.55 138.12-160.92 166.24-5.3047 3.8672-9.1133 9.4453-10.797 15.789-1.6797 6.3438-1.1289 13.074 1.5625 19.062 7.5742 16.848 16.883 32.867 27.773 47.789 2.957 3.9414 7.3125 6.6055 12.168 7.4492 4.8594 0.83984 9.8516-0.20703 13.965-2.9258 32.555-21.516 110.77-77.344 151.08-141.73 8.1758-13.18 10.914-29.02 7.6406-44.18-3.3047-15.633-8.6016-38.273-16.078-63.938z"/>
  <path d="m439.69 1142.4c6.5664 2.0469 13.613 1.9922 20.145-0.16016 6.5352-2.1484 12.234-6.2891 16.301-11.84 18.445-25.406 58.734-67.289 123.87-67.289s105.47 41.883 123.87 67.289c4.0664 5.5508 9.7656 9.6914 16.301 11.84 6.5312 2.1523 13.578 2.207 20.145 0.16016 65.332-19.957 127.01-50.34 182.65-89.977 4.9219-3.5078 8.1016-8.9609 8.7344-14.969 0.63281-6.0117-1.3438-12.004-5.4297-16.461-24.027-26.281-43.395-56.473-57.258-89.273-2.1484-5.0938-6.3672-9.0312-11.602-10.824-5.2305-1.7891-10.977-1.2617-15.797 1.4492-76.781 43.359-197.44 72.656-243.19 82.711-12.137 2.6719-24.707 2.6719-36.844 0-45.75-10.102-166.41-39.352-243.19-82.711-4.8203-2.7109-10.566-3.2383-15.797-1.4492-5.2344 1.793-9.4531 5.7305-11.602 10.824-13.863 32.801-33.23 62.992-57.258 89.273-4.0859 4.457-6.0625 10.449-5.4297 16.461 0.63281 6.0078 3.8125 11.461 8.7344 14.969 55.637 39.637 117.32 70.02 182.65 89.977z"/>
 </g>
</svg>

<?xml version="1.0" encoding="UTF-8" standalone="no"?>
<!DOCTYPE svg PUBLIC "-//W3C//DTD SVG 1.1//EN" "http://www.w3.org/Graphics/SVG/1.1/DTD/svg11.dtd">
<svg width="100%" height="100%" viewBox="0 0 512 510" version="1.1" xmlns="http://www.w3.org/2000/svg" xmlns:xlink="http://www.w3.org/1999/xlink" xml:space="preserve" xmlns:serif="http://www.serif.com/" style="fill-rule:evenodd;clip-rule:evenodd;stroke-linejoin:round;stroke-miterlimit:2;">
    <g transform="matrix(1,0,0,1,-53.2152,-56.0658)">
        <g transform="matrix(0.468172,0,0,0.468172,28.3013,29.8174)">
            <path d="M147.28,77.344L112.921,97.828C106.433,101.691 101.304,107.48 98.253,114.387C95.198,121.297 94.37,128.985 95.882,136.383C119.905,253.123 190.312,351.563 281.532,397.193C286.563,399.728 292.481,399.799 297.571,397.384C302.661,394.97 306.352,390.341 307.571,384.841C312.477,362.751 316.208,340.415 318.751,317.927C319.122,314.498 318.497,311.033 316.95,307.947C315.403,304.865 313.001,302.291 310.032,300.537C211.407,241.943 174.092,125.157 163.802,84.137C162.935,80.727 160.505,77.926 157.247,76.586C153.994,75.246 150.294,75.527 147.279,77.34L147.28,77.344Z" style="fill:white;fill-rule:nonzero;"/>
            <path d="M213.28,541.69C217.393,544.409 222.386,545.456 227.245,544.616C232.101,543.772 236.456,541.108 239.413,537.167C250.304,522.245 259.612,506.226 267.186,489.378C269.889,483.385 270.448,476.644 268.764,470.288C267.084,463.932 263.264,458.35 257.952,454.479C219.585,426.354 145.642,366.073 97.032,288.239C95.044,285.028 91.884,282.711 88.22,281.786C84.556,280.856 80.677,281.387 77.4,283.266C74.118,285.141 71.697,288.219 70.642,291.848C63.165,317.629 57.869,340.153 54.564,355.786C51.29,370.946 54.029,386.786 62.204,399.966C102.516,464.349 180.724,520.176 213.284,541.696L213.28,541.69Z" style="fill:white;fill-rule:nonzero;"/>
            <path d="M814.97,61.219C808.247,57.043 800.286,55.325 792.439,56.36C784.595,57.395 777.349,61.114 771.939,66.891C746.439,94.36 691.408,138.282 599.999,138.282C508.59,138.282 453.559,94.384 428.059,66.915C422.649,61.137 415.403,57.419 407.559,56.384C399.711,55.348 391.75,57.067 385.028,61.243L269.338,132.54C262.326,136.856 257.272,143.731 255.236,151.708C253.201,159.689 254.349,168.146 258.439,175.29C309.814,265.032 426.859,302.09 478.559,314.49C494.282,318.224 510.821,316.17 525.153,308.701L576.247,282.146C591.134,274.423 608.845,274.423 623.731,282.146L674.825,308.701C689.157,316.17 705.696,318.224 721.419,314.49C773.122,302.092 890.169,265.037 941.539,175.29C945.629,168.146 946.777,159.688 944.742,151.708C942.707,143.731 937.652,136.856 930.64,132.54L814.97,61.219Z" style="fill:white;fill-rule:nonzero;"/>
            <path d="M834.73,336.73C834.117,332.253 831.39,328.347 827.402,326.226C823.414,324.105 818.652,324.027 814.597,326.019C780.472,342.636 740.019,353.91 715.503,359.675C701.569,363.007 686.905,361.218 674.183,354.636L623.628,328.527C608.8,320.878 591.183,320.878 576.355,328.527L525.894,354.613C513.136,361.214 498.429,363.011 484.456,359.675C459.94,353.816 419.44,342.613 385.409,326.019C381.354,324.027 376.593,324.105 372.604,326.226C368.616,328.348 365.889,332.254 365.276,336.73C358.502,390.027 332.581,535.95 244.946,632.68C240.231,637.915 237.575,644.676 237.465,651.719C237.36,658.762 239.809,665.602 244.36,670.977C270.915,702.172 319.219,768.266 334.219,850.367C336.649,864.012 345.321,875.738 357.657,882.055C392.391,899.633 466.827,934.414 546.447,953.516C581.592,961.927 618.224,961.927 653.367,953.516C733.055,934.414 807.417,899.61 842.157,882.055C854.493,875.739 863.165,864.012 865.595,850.367C880.595,768.336 928.876,702.167 955.454,670.977C960.005,665.602 962.454,658.762 962.348,651.719C962.239,644.676 959.583,637.914 954.868,632.68C867.423,535.836 841.408,390.03 834.728,336.73L834.73,336.73Z" style="fill:white;fill-rule:nonzero;"/>
            <path d="M1104.1,136.38C1105.61,128.982 1104.78,121.294 1101.73,114.384C1098.68,107.478 1093.55,101.689 1087.06,97.825L1052.7,77.341C1049.69,75.575 1046.03,75.322 1042.81,76.657C1039.59,77.993 1037.17,80.763 1036.3,84.138C1025.94,125.154 988.694,241.918 890.066,300.538C887.097,302.292 884.695,304.866 883.148,307.948C881.601,311.034 880.976,314.499 881.347,317.929C883.882,340.413 887.605,362.749 892.503,384.843C893.722,390.343 897.413,394.972 902.503,397.386C907.593,399.8 913.511,399.729 918.542,397.194C1009.67,351.561 1080.07,253.124 1104.09,136.384L1104.1,136.38Z" style="fill:white;fill-rule:nonzero;"/>
            <path d="M1129.4,291.84C1128.34,288.215 1125.91,285.145 1122.63,283.274C1119.35,281.406 1115.47,280.883 1111.81,281.817C1108.15,282.746 1104.99,285.067 1103.01,288.277C1054.4,366.114 980.46,426.397 942.09,454.518C936.785,458.385 932.976,463.963 931.293,470.306C929.613,476.65 930.164,483.381 932.855,489.369C940.429,506.217 949.738,522.236 960.628,537.158C963.585,541.099 967.941,543.763 972.796,544.607C977.656,545.447 982.648,544.4 986.761,541.681C1019.32,520.165 1097.53,464.337 1137.84,399.951C1146.02,386.771 1148.76,370.931 1145.48,355.771C1142.18,340.138 1136.88,317.498 1129.4,291.833L1129.4,291.84Z" style="fill:white;fill-rule:nonzero;"/>
            <path d="M439.69,1142.4C446.256,1144.45 453.303,1144.39 459.835,1142.24C466.37,1140.09 472.069,1135.95 476.136,1130.4C494.581,1104.99 534.87,1063.11 600.006,1063.11C665.142,1063.11 705.476,1104.99 723.876,1130.4C727.942,1135.95 733.642,1140.09 740.177,1142.24C746.708,1144.39 753.755,1144.45 760.322,1142.4C825.654,1122.44 887.332,1092.06 942.972,1052.42C947.894,1048.91 951.074,1043.46 951.706,1037.45C952.339,1031.44 950.363,1025.45 946.277,1020.99C922.25,994.712 902.882,964.52 889.019,931.72C886.87,926.626 882.651,922.689 877.417,920.896C872.186,919.107 866.44,919.634 861.62,922.345C784.839,965.704 664.18,995.001 618.43,1005.06C606.293,1007.73 593.723,1007.73 581.586,1005.06C535.836,994.954 415.176,965.704 338.396,922.345C333.575,919.634 327.83,919.107 322.599,920.896C317.364,922.689 313.146,926.627 310.997,931.72C297.134,964.521 277.767,994.712 253.739,1020.99C249.653,1025.45 247.676,1031.44 248.309,1037.45C248.942,1043.46 252.121,1048.91 257.043,1052.42C312.68,1092.06 374.363,1122.44 439.693,1142.4L439.69,1142.4Z" style="fill:white;fill-rule:nonzero;"/>
        </g>
    </g>
</svg>
